;FLAVOR:Marlin
;TIME:16863
;Filament used: 11.217m
;Layer height: 0.2
;MINX:26.251
;MINY:53.836
;MINZ:0.24
;MAXX:193.729
;MAXY:136.165
;MAXZ:31.09
;Generated with Creality Slicer 4.8.2-146
M140 S60
M105
M190 S60
M104 S200
M105
M109 S200
M82 ;absolute extrusion mode
M201 X500.00 Y500.00 Z100.00 E5000.00 ;Setup machine max acceleration
M203 X500.00 Y500.00 Z10.00 E50.00 ;Setup machine max feedrate
M204 P500.00 R1000.00 T500.00 ;Setup Print/Retract/Travel acceleration
M205 X8.00 Y8.00 Z0.40 E5.00 ;Setup Jerk
M220 S100 ;Reset Feedrate
M221 S100 ;Reset Flowrate

G28 
G29;Home

G92 E0 ;Reset Extruder
G1 Z2.0 F3000 ;Move Z Axis up
G1 X10.1 Y20 Z0.28 F5000.0 ;Move to start position
G1 X10.1 Y200.0 Z0.28 F1500.0 E15 ;Draw the first line
G1 X10.4 Y200.0 Z0.28 F5000.0 ;Move to side a little
G1 X10.4 Y20 Z0.28 F1500.0 E30 ;Draw the second line
G92 E0 ;Reset Extruder
G1 Z2.0 F3000 ;Move Z Axis up
G92 E0
G92 E0
G1 F3600 E-8
;LAYER_COUNT:150
;LAYER:-6
M107
G0 F7200 X37.124 Y103.742 Z0.24
;TYPE:SUPPORT-INTERFACE
G1 F3600 E0
G1 F1125 X37.963 Y103.473 E0.07033
G1 X38.127 Y103.427 E0.08393
G1 X38.999 Y103.215 E0.15556
G1 X39.161 Y103.182 E0.16876
G1 X40.054 Y103.034 E0.24101
G1 X40.231 Y103.011 E0.25526
G1 X41.125 Y102.928 E0.32693
G1 X41.267 Y102.921 E0.33828
G1 X42.008 Y102.9 E0.39745
G1 X47.013 Y102.9 E0.79697
G1 X47.681 Y102.858 E0.8504
G1 X48.352 Y102.729 E0.90495
G1 X49.001 Y102.516 E0.95947
G1 X49.621 Y102.222 E1.01424
G1 X50.311 Y101.766 E1.08026
G1 X88.555 Y71.909 E4.95322
G1 X89.057 Y71.463 E5.00682
G1 X89.506 Y70.949 E5.0613
G1 X89.886 Y70.383 E5.11572
G1 X90.193 Y69.773 E5.17023
G1 X90.421 Y69.125 E5.22507
G1 X90.588 Y68.266 E5.29492
G1 X90.664 Y67.575 E5.35041
G1 X90.69 Y67.4 E5.36453
G1 X90.852 Y66.52 E5.43596
G1 X90.882 Y66.386 E5.44692
G1 X91.113 Y65.5 E5.52001
G1 X91.165 Y65.329 E5.53428
G1 X91.451 Y64.487 E5.60526
G1 X91.515 Y64.321 E5.61946
G1 X91.856 Y63.518 E5.6891
G1 X91.937 Y63.343 E5.70449
G1 X92.352 Y62.535 E5.777
G1 X92.419 Y62.418 E5.78776
G1 X92.893 Y61.639 E5.86055
G1 X92.993 Y61.488 E5.87501
G1 X93.509 Y60.767 E5.94578
G1 X93.617 Y60.626 E5.95996
G1 X94.194 Y59.934 E6.03188
G1 X94.29 Y59.826 E6.04342
G1 X94.772 Y59.314 E6.09955
G1 X94.929 Y59.158 E6.11722
G1 X95.625 Y58.512 E6.19302
G1 X95.764 Y58.393 E6.20762
G1 X96.455 Y57.839 E6.27832
G1 X96.594 Y57.735 E6.29218
G1 X97.309 Y57.243 E6.36146
G1 X97.493 Y57.126 E6.37887
G1 X98.249 Y56.683 E6.44881
G1 X98.391 Y56.606 E6.4617
G1 X99.223 Y56.197 E6.53571
G1 X99.336 Y56.147 E6.54557
G1 X100.186 Y55.804 E6.61874
G1 X100.359 Y55.742 E6.63341
G1 X101.197 Y55.473 E6.70366
G1 X101.361 Y55.427 E6.71726
G1 X102.233 Y55.215 E6.78889
G1 X102.395 Y55.182 E6.80209
G1 X103.288 Y55.034 E6.87435
G1 X103.465 Y55.011 E6.88859
G1 X104.359 Y54.928 E6.96026
G1 X104.501 Y54.921 E6.97161
G1 X105.242 Y54.9 E7.03079
G1 X108.003 Y54.901 E7.25118
G1 X109.004 Y54.937 E7.33114
G1 X109.127 Y54.946 E7.34098
G1 X110.044 Y55.048 E7.41463
G1 X110.219 Y55.073 E7.42874
G1 X111.108 Y55.237 E7.50091
G1 X111.231 Y55.265 E7.51097
G1 X112.125 Y55.499 E7.58474
G1 X112.288 Y55.548 E7.59833
G1 X113.13 Y55.834 E7.66931
G1 X113.296 Y55.898 E7.68351
G1 X114.099 Y56.239 E7.75315
G1 X114.288 Y56.327 E7.76979
G1 X115.082 Y56.735 E7.84105
G1 X115.199 Y56.802 E7.85182
G1 X115.978 Y57.276 E7.92461
G1 X116.129 Y57.376 E7.93906
G1 X116.843 Y57.887 E8.00915
G1 X116.991 Y58 E8.02401
G1 X117.683 Y58.577 E8.09593
G1 X117.791 Y58.673 E8.10747
G1 X118.303 Y59.155 E8.1636
G1 X118.423 Y59.275 E8.17715
G1 X119.105 Y60.008 E8.25707
G1 X119.224 Y60.147 E8.27167
G1 X119.778 Y60.838 E8.34237
G1 X119.882 Y60.977 E8.35623
G1 X120.374 Y61.692 E8.42551
G1 X120.491 Y61.876 E8.44292
G1 X120.931 Y62.625 E8.51226
G1 X121.004 Y62.759 E8.52444
G1 X121.409 Y63.582 E8.59766
G1 X121.47 Y63.719 E8.60963
G1 X121.812 Y64.564 E8.68239
G1 X121.871 Y64.73 E8.69646
G1 X122.142 Y65.572 E8.76707
G1 X122.189 Y65.738 E8.78084
G1 X122.4 Y66.607 E8.85222
G1 X122.434 Y66.77 E8.86551
G1 X122.582 Y67.662 E8.93769
G1 X122.606 Y67.848 E8.95266
G1 X122.688 Y68.732 E9.02353
G1 X122.696 Y68.884 E9.03568
G1 X122.717 Y69.617 E9.09421
G1 X122.717 Y97.513 E11.32099
G1 X122.759 Y98.181 E11.37442
G1 X122.888 Y98.852 E11.42896
G1 X123.101 Y99.501 E11.48349
G1 X123.393 Y100.118 E11.53798
G1 X123.761 Y100.693 E11.59247
G1 X124.199 Y101.217 E11.64699
G1 X124.699 Y101.681 E11.70144
G1 X125.255 Y102.08 E11.75606
G1 X125.855 Y102.404 E11.8105
G1 X126.491 Y102.65 E11.86493
G1 X127.16 Y102.816 E11.91995
G1 X128.099 Y102.9 E11.99521
G1 X155.13 Y102.9 E14.15294
G1 X155.798 Y102.858 E14.20636
G1 X156.469 Y102.729 E14.26091
G1 X157.118 Y102.516 E14.31543
G1 X157.735 Y102.224 E14.36992
G1 X158.31 Y101.856 E14.42441
G1 X158.834 Y101.418 E14.47893
G1 X159.298 Y100.918 E14.53338
G1 X159.697 Y100.362 E14.58801
G1 X160.021 Y99.762 E14.64244
G1 X160.267 Y99.126 E14.69687
G1 X160.433 Y98.457 E14.7519
G1 X160.517 Y97.518 E14.82715
G1 X160.517 Y85.631 E15.77602
G1 X160.553 Y84.625 E15.85638
G1 X160.563 Y84.49 E15.86718
G1 X160.664 Y83.575 E15.94067
G1 X160.69 Y83.4 E15.95479
G1 X160.852 Y82.52 E16.02621
G1 X160.882 Y82.386 E16.03718
G1 X161.113 Y81.5 E16.11026
G1 X161.165 Y81.329 E16.12453
G1 X161.451 Y80.487 E16.19551
G1 X161.515 Y80.321 E16.20972
G1 X161.856 Y79.518 E16.27936
G1 X161.937 Y79.343 E16.29475
G1 X162.352 Y78.535 E16.36726
G1 X162.419 Y78.418 E16.37802
G1 X162.893 Y77.639 E16.45081
G1 X162.993 Y77.488 E16.46527
G1 X163.509 Y76.767 E16.53604
G1 X163.617 Y76.626 E16.55022
G1 X164.194 Y75.934 E16.62214
G1 X164.29 Y75.826 E16.63367
G1 X164.772 Y75.314 E16.6898
G1 X164.929 Y75.158 E16.70747
G1 X165.625 Y74.512 E16.78327
G1 X165.764 Y74.393 E16.79788
G1 X166.455 Y73.839 E16.86858
G1 X166.594 Y73.735 E16.88243
G1 X167.309 Y73.243 E16.95171
G1 X167.493 Y73.126 E16.96912
G1 X168.249 Y72.683 E17.03906
G1 X168.391 Y72.606 E17.05196
G1 X169.223 Y72.197 E17.12596
G1 X169.336 Y72.147 E17.13583
G1 X170.186 Y71.804 E17.20899
G1 X170.359 Y71.742 E17.22366
G1 X171.197 Y71.473 E17.29392
G1 X171.361 Y71.427 E17.30752
G1 X172.233 Y71.215 E17.37915
G1 X172.395 Y71.182 E17.39235
G1 X173.288 Y71.034 E17.4646
G1 X173.465 Y71.011 E17.47885
G1 X174.359 Y70.928 E17.55052
G1 X174.501 Y70.921 E17.56187
G1 X175.242 Y70.9 E17.62104
G1 X178.003 Y70.901 E17.84144
G1 X179.004 Y70.937 E17.92139
G1 X179.127 Y70.946 E17.93124
G1 X180.044 Y71.048 E18.00489
G1 X180.219 Y71.073 E18.019
G1 X181.108 Y71.237 E18.09116
G1 X181.231 Y71.265 E18.10123
G1 X182.125 Y71.499 E18.175
G1 X182.288 Y71.548 E18.18858
G1 X183.13 Y71.834 E18.25957
G1 X183.296 Y71.898 E18.27377
G1 X184.099 Y72.239 E18.34341
G1 X184.288 Y72.327 E18.36005
G1 X185.082 Y72.735 E18.43131
G1 X185.199 Y72.802 E18.44207
G1 X185.978 Y73.276 E18.51486
G1 X186.129 Y73.376 E18.52932
G1 X186.843 Y73.887 E18.5994
G1 X186.991 Y74 E18.61427
G1 X187.683 Y74.577 E18.68619
G1 X187.791 Y74.673 E18.69772
G1 X188.303 Y75.155 E18.75386
G1 X188.459 Y75.312 E18.77152
G1 X189.105 Y76.008 E18.84732
G1 X189.224 Y76.147 E18.86193
G1 X189.778 Y76.838 E18.93263
G1 X189.882 Y76.977 E18.94648
G1 X190.374 Y77.692 E19.01577
G1 X190.491 Y77.876 E19.03317
G1 X190.931 Y78.625 E19.10251
G1 X191.004 Y78.759 E19.11469
G1 X191.409 Y79.582 E19.18791
G1 X191.47 Y79.719 E19.19988
G1 X191.812 Y80.564 E19.27265
G1 X191.871 Y80.73 E19.28671
G1 X192.142 Y81.572 E19.35732
G1 X192.189 Y81.738 E19.37109
G1 X192.4 Y82.607 E19.44248
G1 X192.434 Y82.77 E19.45577
G1 X192.582 Y83.662 E19.52794
G1 X192.606 Y83.848 E19.54291
G1 X192.687 Y84.732 E19.61377
G1 X192.696 Y84.884 E19.62593
G1 X192.717 Y85.617 E19.68446
G1 X192.717 Y120.369 E22.45852
G1 X192.681 Y121.375 E22.53887
G1 X192.671 Y121.51 E22.54968
G1 X192.569 Y122.427 E22.62333
G1 X192.544 Y122.602 E22.63744
G1 X192.382 Y123.48 E22.70871
G1 X192.352 Y123.614 E22.71967
G1 X192.121 Y124.499 E22.79268
G1 X192.069 Y124.671 E22.80703
G1 X191.783 Y125.513 E22.87801
G1 X191.719 Y125.679 E22.89221
G1 X191.378 Y126.482 E22.96185
G1 X191.297 Y126.657 E22.97724
G1 X190.893 Y127.443 E23.04779
G1 X190.815 Y127.582 E23.06051
G1 X190.341 Y128.361 E23.1333
G1 X190.241 Y128.512 E23.14776
G1 X189.73 Y129.226 E23.21785
G1 X189.617 Y129.374 E23.23271
G1 X189.04 Y130.066 E23.30463
G1 X188.944 Y130.174 E23.31616
G1 X188.462 Y130.686 E23.3723
G1 X188.305 Y130.842 E23.38996
G1 X187.62 Y131.478 E23.46458
G1 X187.472 Y131.605 E23.48014
G1 X186.779 Y132.161 E23.55107
G1 X186.64 Y132.265 E23.56492
G1 X185.925 Y132.757 E23.63421
G1 X185.741 Y132.874 E23.65161
G1 X184.985 Y133.317 E23.72156
G1 X184.843 Y133.394 E23.73445
G1 X184.015 Y133.801 E23.8081
G1 X183.898 Y133.853 E23.81832
G1 X183.043 Y134.198 E23.89191
G1 X182.88 Y134.256 E23.90573
G1 X182.037 Y134.527 E23.97641
G1 X181.873 Y134.573 E23.99001
G1 X181.001 Y134.785 E24.06164
G1 X180.839 Y134.818 E24.07484
G1 X179.946 Y134.966 E24.14709
G1 X179.769 Y134.989 E24.16134
G1 X178.875 Y135.072 E24.23301
G1 X178.733 Y135.079 E24.24436
G1 X177.992 Y135.1 E24.30353
G1 X41.997 Y135.099 E35.15924
G1 X40.996 Y135.063 E35.2392
G1 X40.873 Y135.054 E35.24904
G1 X39.956 Y134.952 E35.32269
G1 X39.781 Y134.927 E35.3368
G1 X38.892 Y134.763 E35.40896
G1 X38.769 Y134.735 E35.41903
G1 X37.875 Y134.501 E35.4928
G1 X37.712 Y134.452 E35.50639
G1 X36.87 Y134.166 E35.57737
G1 X36.704 Y134.102 E35.59157
G1 X35.901 Y133.761 E35.66121
G1 X35.712 Y133.673 E35.67785
G1 X34.918 Y133.265 E35.74911
G1 X34.801 Y133.198 E35.75987
G1 X34.022 Y132.724 E35.83266
G1 X33.871 Y132.624 E35.84712
G1 X33.157 Y132.113 E35.91721
G1 X33.009 Y132 E35.93207
G1 X32.317 Y131.423 E36.00399
G1 X32.209 Y131.327 E36.01553
G1 X31.697 Y130.845 E36.07166
G1 X31.537 Y130.684 E36.08978
G1 X30.893 Y129.99 E36.16535
G1 X30.776 Y129.853 E36.17973
G1 X30.226 Y129.167 E36.24992
G1 X30.11 Y129.011 E36.26544
G1 X29.626 Y128.308 E36.33357
G1 X29.509 Y128.124 E36.35097
G1 X29.066 Y127.368 E36.42092
G1 X28.989 Y127.226 E36.43381
G1 X28.58 Y126.394 E36.50782
G1 X28.53 Y126.281 E36.51768
G1 X28.181 Y125.417 E36.59206
G1 X28.125 Y125.259 E36.60545
G1 X27.853 Y124.411 E36.67653
G1 X27.811 Y124.261 E36.68897
G1 X27.595 Y123.373 E36.76192
G1 X27.566 Y123.23 E36.77357
G1 X27.416 Y122.324 E36.84687
G1 X27.394 Y122.152 E36.86071
G1 X27.311 Y121.253 E36.93278
G1 X27.304 Y121.116 E36.94373
G1 X27.283 Y120.383 E37.00227
G1 X27.283 Y117.631 E37.22194
G1 X27.319 Y116.625 E37.3023
G1 X27.329 Y116.49 E37.3131
G1 X27.431 Y115.573 E37.38675
G1 X27.456 Y115.398 E37.40086
G1 X27.618 Y114.52 E37.47213
G1 X27.648 Y114.386 E37.48309
G1 X27.879 Y113.501 E37.55611
G1 X27.931 Y113.329 E37.57045
G1 X28.217 Y112.487 E37.64143
G1 X28.281 Y112.321 E37.65563
G1 X28.622 Y111.518 E37.72527
G1 X28.703 Y111.343 E37.74067
G1 X29.118 Y110.535 E37.81317
G1 X29.185 Y110.418 E37.82394
G1 X29.659 Y109.639 E37.89673
G1 X29.759 Y109.488 E37.91118
G1 X30.27 Y108.774 E37.98127
G1 X30.383 Y108.626 E37.99613
G1 X30.96 Y107.934 E38.06806
G1 X31.056 Y107.826 E38.07959
G1 X31.538 Y107.314 E38.13572
G1 X31.695 Y107.158 E38.15339
G1 X32.391 Y106.512 E38.22919
G1 X32.53 Y106.393 E38.2438
G1 X33.221 Y105.839 E38.31449
G1 X33.36 Y105.735 E38.32835
G1 X34.075 Y105.243 E38.39763
G1 X34.259 Y105.126 E38.41504
G1 X35.015 Y104.683 E38.48498
G1 X35.157 Y104.606 E38.49788
G1 X35.989 Y104.197 E38.57188
G1 X36.102 Y104.147 E38.58174
G1 X36.957 Y103.802 E38.65534
G1 X37.124 Y103.742 E38.66951
G0 F7200 X36.8 Y103.865
G1 F1125 X36.8 Y134.139 E41.08611
G0 F7200 X38.4 Y134.638
G1 F1125 X38.4 Y103.36 E43.58285
G0 F7200 X40 Y103.042
G1 F1125 X40 Y134.956 E46.13037
G0 F7200 X41.6 Y135.084
G1 F1125 X41.6 Y102.911 E48.69855
G0 F7200 X43.2 Y102.9
G1 F1125 X43.2 Y135.099 E51.26882
G0 F7200 X44.8 Y135.099
G1 F1125 X44.8 Y102.9 E53.83908
G0 F7200 X46.4 Y102.9
G1 F1125 X46.4 Y135.099 E56.40934
G0 F7200 X48 Y135.099
G1 F1125 X48 Y102.796 E58.98791
G0 F7200 X49.6 Y102.231
G1 F1125 X49.6 Y135.099 E61.61158
G0 F7200 X51.2 Y135.099
G1 F1125 X51.2 Y101.071 E64.32784
G0 F7200 X52.8 Y99.822
G1 F1125 X52.8 Y135.099 E67.1438
G0 F7200 X54.4 Y135.099
G1 F1125 X54.4 Y98.573 E70.05946
G0 F7200 X56 Y97.324
G1 F1125 X56 Y135.099 E73.07483
G0 F7200 X57.6 Y135.099
G1 F1125 X57.6 Y96.075 E76.18989
G0 F7200 X59.2 Y94.826
G1 F1125 X59.2 Y135.099 E79.40466
G0 F7200 X60.8 Y135.099
G1 F1125 X60.8 Y93.577 E82.71912
G0 F7200 X62.4 Y92.328
G1 F1125 X62.4 Y135.099 E86.13329
G0 F7200 X64 Y135.099
G1 F1125 X64 Y91.079 E89.64716
G0 F7200 X65.6 Y89.829
G1 F1125 X65.6 Y135.099 E93.2608
G0 F7200 X67.2 Y135.099
G1 F1125 X67.2 Y88.58 E96.97415
G0 F7200 X68.8 Y87.331
G1 F1125 X68.8 Y135.099 E100.7872
G0 F7200 X70.4 Y135.099
G1 F1125 X70.4 Y86.082 E104.69995
G0 F7200 X72 Y84.833
G1 F1125 X72 Y135.099 E108.7124
G0 F7200 X73.6 Y135.099
G1 F1125 X73.6 Y83.584 E112.82455
G0 F7200 X75.2 Y82.335
G1 F1125 X75.2 Y135.099 E117.0364
G0 F7200 X76.8 Y135.099
G1 F1125 X76.8 Y81.086 E121.34795
G0 F7200 X78.4 Y79.836
G1 F1125 X78.4 Y135.099 E125.75928
G0 F7200 X80 Y135.099
G1 F1125 X80 Y78.587 E130.27031
G0 F7200 X81.6 Y77.338
G1 F1125 X81.6 Y135.099 E134.88105
G0 F7200 X83.2 Y135.099
G1 F1125 X83.2 Y76.089 E139.59148
G0 F7200 X84.8 Y74.84
G1 F1125 X84.8 Y135.099 E144.40161
G0 F7200 X86.4 Y135.099
G1 F1125 X86.4 Y73.591 E149.31145
G0 F7200 X88 Y72.342
G1 F1125 X88 Y135.099 E154.32098
G0 F7200 X89.6 Y135.099
G1 F1125 X89.6 Y70.808 E159.45297
G1 F3600 E151.45297
G0 F7200 X88.968 Y69.841
G0 X90.09 Y65.204
G0 X91.2 Y65.225
G1 F3600 E159.45297
G1 F1125 X91.2 Y135.099 E165.03061
G0 F7200 X92.8 Y135.099
G1 F1125 X92.8 Y61.791 E170.88237
G0 F7200 X94.4 Y59.709
G1 F1125 X94.4 Y135.099 E176.90033
G0 F7200 X96 Y135.099
G1 F1125 X96 Y58.203 E183.0385
G0 F7200 X97.6 Y57.063
G1 F1125 X97.6 Y135.099 E189.26767
G0 F7200 X99.2 Y135.099
G1 F1125 X99.2 Y56.208 E195.56509
G0 F7200 X100.8 Y55.6
G1 F1125 X100.8 Y135.099 E201.91105
G0 F7200 X102.4 Y135.099
G1 F1125 X102.4 Y55.181 E208.29045
G0 F7200 X104 Y54.961
G1 F1125 X104 Y135.099 E214.68741
G0 F7200 X105.6 Y135.099
G1 F1125 X105.6 Y54.901 E221.08916
G0 F7200 X107.2 Y54.901
G1 F1125 X107.2 Y135.099 E227.49091
G0 F7200 X108.8 Y135.099
G1 F1125 X108.8 Y54.93 E233.89035
G0 F7200 X110.4 Y55.107
G1 F1125 X110.4 Y135.099 E240.27566
G0 F7200 X112 Y135.099
G1 F1125 X112 Y55.467 E246.63223
G0 F7200 X113.6 Y56.028
G1 F1125 X113.6 Y135.099 E252.94401
G0 F7200 X115.2 Y135.099
G1 F1125 X115.2 Y56.803 E259.19394
G0 F7200 X116.8 Y57.857
G1 F1125 X116.8 Y135.099 E265.35973
G0 F7200 X118.4 Y135.099
G1 F1125 X118.4 Y59.252 E271.41417
G0 F7200 X120 Y61.149
G1 F1125 X120 Y135.099 E277.31717
G0 F7200 X121.6 Y135.099
G1 F1125 X121.6 Y64.041 E282.98933
G1 F3600 E274.98933
G0 F7200 X122.81 Y64.194
G0 X123.221 Y65.475
G0 X123.636 Y67.515
G0 X123.753 Y69.209
G0 X124.091 Y99.105
G0 X123.2 Y99.711
G1 F3600 E282.98933
G1 F1125 X123.2 Y135.099 E285.81415
G0 F7200 X124.8 Y135.099
G1 F1125 X124.8 Y101.754 E288.4759
G0 F7200 X126.4 Y102.615
G1 F1125 X126.4 Y135.099 E291.06891
G0 F7200 X128 Y135.099
G1 F1125 X128 Y102.892 E293.63981
G0 F7200 X129.6 Y102.9
G1 F1125 X129.6 Y135.099 E296.21008
G0 F7200 X131.2 Y135.099
G1 F1125 X131.2 Y102.9 E298.78034
G0 F7200 X132.8 Y102.9
G1 F1125 X132.8 Y135.099 E301.3506
G0 F7200 X134.4 Y135.099
G1 F1125 X134.4 Y102.9 E303.92087
G0 F7200 X136 Y102.9
G1 F1125 X136 Y135.099 E306.49113
G0 F7200 X137.6 Y135.099
G1 F1125 X137.6 Y102.9 E309.06139
G0 F7200 X139.2 Y102.9
G1 F1125 X139.2 Y135.099 E311.63166
G0 F7200 X140.8 Y135.099
G1 F1125 X140.8 Y102.9 E314.20192
G0 F7200 X142.4 Y102.9
G1 F1125 X142.4 Y135.099 E316.77218
G0 F7200 X144 Y135.099
G1 F1125 X144 Y102.9 E319.34245
G0 F7200 X145.6 Y102.9
G1 F1125 X145.6 Y135.099 E321.91271
G0 F7200 X147.2 Y135.099
G1 F1125 X147.2 Y102.9 E324.48297
G0 F7200 X148.8 Y102.9
